X: 32
T: Song of the deer (b)
N: Derived from ojibwa32.krn
C: Chippewa Songs ~ 1910
O: Red Wing, Minnesota, U.S.A
N: Chippewa Music by Frances Densmore, 1910
Z: transcribed to **kern format by Paul von Hippel and Daniel T. Shanahan
L: 1/8
M: 2/4
Q: 1/4=108
K: Ab clef=bass
%%linebreak <none>
D D C C | 
B, B, A,3/ C/ | 
C C B, B, | 
[M:3/4]A, A, F, F, E,3/ A,/ | 
A, F, E, F, E, E, | 
[M:2/4]E,> E, E, E, | 
E,2E, E, | 
[M:3/4]E,4-E,3/ E,/ | 
[M:2/4]E,2E, E, | 
E,4 |]  



